public/library/swapsicle-icon-dark.svg

<svg width="72" height="72" viewBox="0 0 72 72" fill="none" xmlns="http://www.w3.org/2000/svg">
<path d="M55.6189 54.6459C55.0933 55.1789 54.7988 55.8967 54.7988 56.6444C54.7988 57.3923 55.0933 58.1099 55.6189 58.6431L62.2846 65.293C62.8263 65.769 63.5293 66.0215 64.2508 65.9987C64.9723 65.976 65.658 65.6798 66.1684 65.1706C66.6788 64.6614 66.9757 63.9773 66.9984 63.2575C67.0211 62.5377 66.7682 61.8363 66.2911 61.2959L59.6256 54.6459C59.0911 54.1214 58.3716 53.8276 57.6222 53.8276C56.8728 53.8276 56.1533 54.1214 55.6189 54.6459Z" fill="url(#paint0_linear_118_2060)"/>
<path d="M49.158 29.1914C20.9519 44.3061 20.2378 45.2876 18.8096 43.8421L18.6133 43.9671L21.416 46.7688C24.2902 49.6418 23.7368 48.8565 49.7294 35.0447C56.87 31.2259 61.5474 45.6266 54.1567 53.0145C52.941 54.2328 51.497 55.1994 49.9071 55.8589C48.3172 56.5184 46.6128 56.858 44.8914 56.858C43.1701 56.858 41.4655 56.5184 39.8757 55.8589C38.2859 55.1994 36.8418 54.2328 35.6261 53.0145C32.8414 50.2484 32.8414 50.2307 27.6642 53.0145L31.6095 56.9404C35.1377 60.4645 39.9216 62.444 44.9093 62.444C49.8971 62.444 54.6807 60.4645 58.209 56.9404C69.2951 45.8052 61.6544 28.3884 52.7284 28.3884C51.529 28.3934 50.3504 28.7003 49.3009 29.2807" fill="url(#paint1_linear_118_2060)"/>
<path d="M25.2755 5.00045C22.7271 5.00507 20.2046 5.50657 17.8527 6.4762C15.5007 7.44582 13.3655 8.86454 11.5695 10.651C-1.13816 23.2078 10.4802 43.8726 20.7734 38.4373C49.5107 23.2257 50.2368 22.293 51.7255 23.7101L51.9251 23.5666L49.0749 20.7503C46.1523 17.8622 46.715 18.6694 20.2832 32.5537C13.0217 36.3745 8.26546 21.8983 15.7811 14.4719C17.0172 13.2472 18.4857 12.2755 20.1025 11.6125C21.7192 10.9495 23.4524 10.6083 25.2029 10.6083C26.9533 10.6083 28.6866 10.9495 30.3034 11.6125C31.9202 12.2755 33.3885 13.2472 34.6247 14.4719C37.4566 17.2523 37.4566 17.2702 42.7212 14.4719L38.7092 10.4716C36.9482 8.74755 34.8595 7.38455 32.5633 6.46099C30.2671 5.53744 27.7728 4.98187 25.2938 5.00045" fill="url(#paint2_linear_118_2060)"/>
<path d="M51.7234 23.7109C50.2349 22.2938 49.5088 23.2266 20.7714 38.4383L20.2812 32.5544C46.7131 18.6703 46.1502 17.8631 49.0731 20.7511L51.9233 23.5674L51.7234 23.7109Z" fill="url(#paint3_linear_118_2060)"/>
<path d="M18.813 43.662C20.3016 45.0791 21.0277 44.1463 49.765 28.9346L50.2553 34.8184C23.8234 48.7026 24.3862 49.5098 21.4634 46.6217L18.6133 43.8054L18.813 43.662Z" fill="url(#paint4_linear_118_2060)"/>
<path d="M11.5859 10.651C13.382 8.86452 15.5172 7.44582 17.8692 6.4762C19.9466 5.61975 22.157 5.12853 24.4009 5.02233C24.6974 5.0083 24.9946 5.00099 25.2921 5.00045L25.3104 5.00045C27.7894 4.98187 30.2837 5.53744 32.5799 6.46099C34.876 7.38455 36.9646 8.74756 38.7258 10.4716L42.7378 14.4719C37.485 17.2639 37.4731 17.2524 34.6603 14.4906L34.6413 14.4719C33.4051 13.2472 31.9365 12.2755 30.3197 11.6125C28.7031 10.9495 26.9699 10.6083 25.2194 10.6083C23.4689 10.6083 21.7357 10.9495 20.1189 11.6125C18.5022 12.2755 17.0337 13.2472 15.7976 14.4719L11.5859 10.651Z" fill="#9BF7C3"/>
<defs>
<linearGradient id="paint0_linear_118_2060" x1="57.4035" y1="55.8108" x2="65.8816" y2="64.9941" gradientUnits="userSpaceOnUse">
<stop offset="0.09375" stop-color="#EBA7AC"/>
<stop offset="0.536458" stop-color="#F3D285"/>
</linearGradient>
<linearGradient id="paint1_linear_118_2060" x1="52.8857" y1="26.7472" x2="41.2141" y2="62.4601" gradientUnits="userSpaceOnUse">
<stop offset="0.171183" stop-color="#FF7AD9"/>
<stop offset="0.800177" stop-color="#F3D583"/>
</linearGradient>
<linearGradient id="paint2_linear_118_2060" x1="-1.45267" y1="11.7621" x2="24.0397" y2="37.2105" gradientUnits="userSpaceOnUse">
<stop offset="0.38513" stop-color="#9BF6C3"/>
<stop offset="0.804178" stop-color="#6850DD"/>
</linearGradient>
<linearGradient id="paint3_linear_118_2060" x1="50.4934" y1="20.5713" x2="26.719" y2="31.8513" gradientUnits="userSpaceOnUse">
<stop stop-color="#FF7AD9"/>
<stop offset="0.463542" stop-color="#684FDC"/>
</linearGradient>
<linearGradient id="paint4_linear_118_2060" x1="23.2058" y1="45.4122" x2="43.8198" y2="35.5272" gradientUnits="userSpaceOnUse">
<stop offset="0.246364" stop-color="#684FDC"/>
<stop offset="0.96875" stop-color="#FF7AD9"/>
</linearGradient>
</defs>
</svg>

<svg xmlns="http://www.w3.org/2000/svg" width="72" height="72" fill="none" viewBox="0 0 72 72"><path fill="url(#a)" d="M55.619 54.646a2.846 2.846 0 0 0 0 3.997l6.666 6.65a2.843 2.843 0 0 0 3.883-.122 2.83 2.83 0 0 0 .123-3.875l-6.665-6.65a2.86 2.86 0 0 0-4.007 0"/><path fill="url(#b)" d="M49.158 29.191C20.952 44.306 20.238 45.288 18.81 43.842l-.197.125 2.803 2.802c2.874 2.873 2.32 2.087 28.313-11.724 7.141-3.82 11.818 10.582 4.428 17.97a13.087 13.087 0 0 1-18.53 0c-2.786-2.767-2.786-2.784-7.963 0l3.945 3.925a18.82 18.82 0 0 0 26.6 0c11.086-11.135 3.445-28.552-5.48-28.552a7.14 7.14 0 0 0-3.428.893"/><path fill="url(#c)" d="M25.276 5c-2.549.005-5.071.507-7.423 1.476a19.4 19.4 0 0 0-6.284 4.175c-12.707 12.557-1.089 33.222 9.204 27.786C49.511 23.226 50.237 22.293 51.725 23.71l.2-.143-2.85-2.817c-2.923-2.888-2.36-2.08-28.792 11.804-7.261 3.82-12.018-10.656-4.502-18.082a13.3 13.3 0 0 1 4.321-2.86 13.44 13.44 0 0 1 10.201 0 13.3 13.3 0 0 1 4.322 2.86c2.832 2.78 2.832 2.798 8.096 0l-4.012-4a18.8 18.8 0 0 0-6.146-4.011c-2.296-.924-4.79-1.48-7.27-1.46"/><path fill="url(#d)" d="M51.723 23.71c-1.488-1.416-2.214-.483-30.952 14.728l-.49-5.884c26.432-13.884 25.87-14.69 28.792-11.803l2.85 2.816z"/><path fill="url(#e)" d="M18.813 43.662c1.489 1.417 2.215.484 30.952-14.727l.49 5.883C23.823 48.703 24.386 49.51 21.463 46.622l-2.85-2.817z"/><path fill="#9bf7c3" d="M11.586 10.651a19.4 19.4 0 0 1 6.283-4.175A19.6 19.6 0 0 1 25.292 5h.018c2.48-.018 4.974.537 7.27 1.461a18.8 18.8 0 0 1 6.146 4.01l4.012 4c-5.253 2.793-5.265 2.781-8.078.02l-.019-.02a13.3 13.3 0 0 0-4.321-2.858 13.44 13.44 0 0 0-10.201 0 13.3 13.3 0 0 0-4.321 2.859z"/><defs><linearGradient id="a" x1="57.404" x2="65.882" y1="55.811" y2="64.994" gradientUnits="userSpaceOnUse"><stop offset=".094" stop-color="#eba7ac"/><stop offset=".536" stop-color="#f3d285"/></linearGradient><linearGradient id="b" x1="52.886" x2="41.214" y1="26.747" y2="62.46" gradientUnits="userSpaceOnUse"><stop offset=".171" stop-color="#ff7ad9"/><stop offset=".8" stop-color="#f3d583"/></linearGradient><linearGradient id="c" x1="-1.453" x2="24.04" y1="11.762" y2="37.211" gradientUnits="userSpaceOnUse"><stop offset=".385" stop-color="#9bf6c3"/><stop offset=".804" stop-color="#6850dd"/></linearGradient><linearGradient id="d" x1="50.493" x2="26.719" y1="20.571" y2="31.851" gradientUnits="userSpaceOnUse"><stop stop-color="#ff7ad9"/><stop offset=".464" stop-color="#684fdc"/></linearGradient><linearGradient id="e" x1="23.206" x2="43.82" y1="45.412" y2="35.527" gradientUnits="userSpaceOnUse"><stop offset=".246" stop-color="#684fdc"/><stop offset=".969" stop-color="#ff7ad9"/></linearGradient></defs></svg>
